icons/filter-16.svg

<svg xmlns="http://www.w3.org/2000/svg" width="16" height="16" viewBox="0 0 16 16">
  <defs/>
  <path d="M0.75,3 L15.25,3 C15.664,3 16,3.336 16,3.75 C16,4.164 15.664,4.5 15.25,4.5 L0.75,4.5 C0.336,4.5 0,4.164 0,3.75 C0,3.336 0.336,3 0.75,3 Z M3,7.75 C3,7.336 3.336,7 3.75,7 L12.25,7 C12.664,7 13,7.336 13,7.75 C13,8.164 12.664,8.5 12.25,8.5 L3.75,8.5 C3.336,8.5 3,8.164 3,7.75 Z M6,11.75 C6,11.336 6.336,11 6.75,11 L9.25,11 C9.664,11 10,11.336 10,11.75 C10,12.164 9.664,12.5 9.25,12.5 L6.75,12.5 C6.336,12.5 6,12.164 6,11.75 Z"/>
</svg>

<svg xmlns="http://www.w3.org/2000/svg" width="16" height="16" viewBox="0 0 16 16"><path d="M.75 3h14.5a.75.75 0 010 1.5H.75a.75.75 0 010-1.5zM3 7.75A.75.75 0 013.75 7h8.5a.75.75 0 010 1.5h-8.5A.75.75 0 013 7.75zm3 4a.75.75 0 01.75-.75h2.5a.75.75 0 010 1.5h-2.5a.75.75 0 01-.75-.75z"/></svg>
